X:189
T:Reel 189
M:4/4
K:Dmaj
L:1/8
D>F (3FEF G>F (3FEF |G>E (3EEE B>ECEGE| (3FGF  (3GFE F>D (3DCD |EA,B,C D2AG:||:D>d (3dcd A>F (3DCD |G>E (3EEE B>ECECE| (3FED A>D  (3FDD A>F (3FED |A,>C (3ECC E>C (3EFE |A>d (3dcd A>F (3DED |A>C (3CB,C E>F (3GFE | (3FGF  (3EFE F>d (3cdc | (3Bcd ce dBAGFE|
